X: 19773
T: Jenny's Welcome To Charlie
R: reel
M: 4/4
K: Ddorian
|D3c AGED|Ec~c2 dc~c2|D3c AGED|E2cE EDCE|
D3c AGED|Ec~c2 d2cd|eddc AGEA|1 GEcE EDCE:|2 GEcE EDDg||
|:effA efed|cA AA cAGe|fedf edcd|eaag edde|
~f2Af efed|cAAc c2cd|eddc AGEA|GEcE EDDg:|
|:ea~a2 age^f|~g2ag gedg|eaag gaag|eaag eddg|
~a2ea age^f|~g2ag gedB|GA(3Bcd ecdc|1 AGcG EGGg:|2 AGcG EGGc||
|:Ad~d2 defc|Ac~c2 cAGc|Addc d2 cd|eaag eddc|
~d2Ad dcAB|~c2Gc cAGE|DEFG Addc|1 AGcG EGGc:|2 AGcG EGGE||

